docs/science/modern/RWP.svg

<svg viewBox="0 0 600 480"><title>Comparison of radiation laws</title><path fill="#fff" d="M0 0h600v480H0z"/><path fill="#e0e0e0" d="M88.5 16.7H575v405.7H88.5z"/><path d="M88.5 422.4h9m477.5 0h-9M88.5 402H93m482 0h-4.5m-482-26.9H93m482 0h-4.5m-482-13.8H93m482 0h-4.5m-482-6.5h9m477.5 0h-9M88.5 334.4H93m482 0h-4.5m-482-26.9H93m482 0h-4.5m-482-13.8H93m482 0h-4.5m-482-6.5h9m477.5 0h-9M88.5 266.8H93m482 0h-4.5m-482-26.9H93m482 0h-4.5m-482-13.8H93m482 0h-4.5m-482-6.5h9m477.5 0h-9M88.5 199.2H93m482 0h-4.5m-482-26.9H93m482 0h-4.5m-482-13.8H93m482 0h-4.5m-482-6.6h9m477.5 0h-9M88.5 131.6H93m482 0h-4.5m-482-26.9H93m482 0h-4.5m-482-13.8H93m482 0h-4.5m-482-6.6h9m477.5 0h-9M88.5 64H93m482 0h-4.5m-482-26.9H93m482 0h-4.5m-482-13.8H93m482 0h-4.5m-482-6.6h9m477.5 0h-9M99.2 422.4v-4.5m0-401.2v4.5m41 401.2v-4.5m0-401.2v4.5m29.1 401.2v-4.5m0-401.2v4.5m22.6 401.2v-4.5m0-401.2v4.5m18.5 401.2v-4.5m0-401.2v4.5M226 422.4v-4.5m0-401.2v4.5m13.5 401.2v-4.5m0-401.2v4.5m11.9 401.2v-4.5m0-401.2v4.5m10.7 401.2v-9m0-396.7v9m70.2 396.7v-4.5m0-401.2v4.5m41 401.2v-4.5m0-401.2v4.5m29.1 401.2v-4.5m0-401.2v4.5M425 422.4v-4.5m0-401.2v4.5m18.5 401.2v-4.5m0-401.2v4.5m15.6 401.2v-4.5m0-401.2v4.5m13.5 401.2v-4.5m0-401.2v4.5m11.9 401.2v-4.5m0-401.2v4.5m10.7 401.2v-9m0-396.7v9m70.2 396.7v-4.5m0-401.2v4.5M88.5 16.7v405.7H575V16.7z" style="fill:none;stroke:#000;stroke-width:1;stroke-linecap:butt;stroke-linejoin:miter"/><g style="fill:none;stroke:currentColor;stroke-width:2;stroke-linecap:butt;stroke-linejoin:miter"><path stroke="red" d="M121.3 70.7h42.2m-75 223.2 4.9-2.9 4.9-2.8 4.9-2.9 5-2.9 4.9-2.8 4.9-2.9 4.9-2.8 4.9-2.9 4.9-2.8 4.9-2.9 5-2.8 4.9-2.9 4.9-2.8 4.9-2.9 4.9-2.8 4.9-2.9 4.9-2.8 5-2.9 4.9-2.8 4.9-2.9 4.9-2.8 4.9-2.9 4.9-2.8 4.9-2.9 5-2.8 4.9-2.9 4.9-2.8 4.9-2.9 4.9-2.8 4.9-2.9 4.9-2.8 5-2.9 4.9-2.8 4.9-2.9 4.9-2.8 4.9-2.9 4.9-2.8 4.9-2.9 5-2.8 4.9-2.9 4.9-2.8 4.9-2.9 4.9-2.8 4.9-2.9 4.9-2.8 5-2.9 4.9-2.8 4.9-2.9 4.9-2.8 4.9-2.9 4.9-2.8 4.9-2.9 4.9-2.9 5-2.8 4.9-2.9 4.9-2.8 4.9-2.9 4.9-2.8 4.9-2.9 4.9-2.8 5-2.9 4.9-2.8 4.9-2.9 4.9-2.8 4.9-2.9 4.9-2.8 4.9-2.9 5-2.8 4.9-2.9 4.9-2.8 4.9-2.9 4.9-2.8 4.9-2.9 4.9-2.8 5-2.9 4.9-2.8 4.9-2.9 4.9-2.8 4.9-2.9 4.9-2.8 4.9-2.9 5-2.8 4.9-2.9 4.9-2.8 4.9-2.9 4.9-2.8 4.9-2.9 4.9-2.8 5-2.9 4.9-2.8 4.9-2.9 4.9-2.8 4.9-2.9 4.9-2.8 4.9-2.9 5-2.8 4.9-2.9 1-.6"/><path stroke="#00f" d="M121.3 34.7h42.2m-75 327.7 4.9-4.1 4.9-4.1 4.9-4.1 5-4.1 4.9-4.1 4.9-4.1 4.9-4.1 4.9-4 4.9-4.1 4.9-4 5-4 4.9-4 4.9-4 4.9-4 4.9-4 4.9-3.9 4.9-3.9 5-4 4.9-3.9 4.9-3.8 4.9-3.9 4.9-3.8 4.9-3.9 4.9-3.8 5-3.7 4.9-3.8 4.9-3.7 4.9-3.7 4.9-3.6 4.9-3.7 4.9-3.6 5-3.5 4.9-3.6 4.9-3.5 4.9-3.4 4.9-3.4 4.9-3.4 4.9-3.3 5-3.3 4.9-3.2 4.9-3.2 4.9-3.1 4.9-3.1 4.9-3 4.9-3 5-2.8 4.9-2.8 4.9-2.8 4.9-2.6 4.9-2.6 4.9-2.5 4.9-2.4 4.9-2.3 5-2.2 4.9-2.1 4.9-2 4.9-1.9 4.9-1.8 4.9-1.6 4.9-1.5 5-1.4 4.9-1.2 4.9-1.1 4.9-.9 4.9-.8 4.9-.5 4.9-.4 5-.2h4.9l4.9.2 4.9.4 4.9.7 4.9.9 4.9 1.2 5 1.5 4.9 1.7 4.9 2 4.9 2.4 4.9 2.7 4.9 3 4.9 3.4 5 3.7 4.9 4.2 4.9 4.6 4.9 5 4.9 5.5 4.9 6 4.9 6.5 5 7 4.9 7.6 4.9 8.2 4.9 8.8 4.9 9.4 4.9 10.2 4.9 10.8 5 11.6 4.9 12.4 4.9 13.2 4.9 14.1"/><path stroke="green" d="M121.3 52.7h42.2m-75 242.8 4.9-2.8 4.9-2.8 4.9-2.7 5-2.8 4.9-2.8 4.9-2.7 4.9-2.7 4.9-2.8 4.9-2.7 4.9-2.7 5-2.8 4.9-2.7 4.9-2.7 4.9-2.7 4.9-2.7 4.9-2.6 4.9-2.7 5-2.7 4.9-2.6 4.9-2.7 4.9-2.6 4.9-2.6 4.9-2.6 4.9-2.6 5-2.6 4.9-2.6 4.9-2.5 4.9-2.6 4.9-2.5 4.9-2.5 4.9-2.5 5-2.5 4.9-2.4 4.9-2.4 4.9-2.4 4.9-2.4 4.9-2.4 4.9-2.3 5-2.3 4.9-2.2 4.9-2.3 4.9-2.2 4.9-2.1 4.9-2.2 4.9-2 5-2.1 4.9-2 4.9-1.9 4.9-1.9 4.9-1.8 4.9-1.8 4.9-1.7 4.9-1.7 5-1.5 4.9-1.5 4.9-1.5 4.9-1.3 4.9-1.2 4.9-1.2 4.9-1 5-1 4.9-.8 4.9-.7 4.9-.6 4.9-.4 4.9-.3 4.9-.1 5 .1 4.9.2 4.9.4 4.9.6 4.9.9 4.9 1 4.9 1.3 5 1.6 4.9 1.8 4.9 2.1 4.9 2.4 4.9 2.8 4.9 3 4.9 3.5 5 3.7 4.9 4.2 4.9 4.6 4.9 5.1 4.9 5.5 4.9 6 4.9 6.5 5 7 4.9 7.6 4.9 8.2 4.9 8.8 4.9 9.4 4.9 10.2 4.9 10.8 5 11.6 4.9 12.4 4.9 13.2 4.9 14.1"/></g><path stroke="#000" d="M88.5 16.7v405.7H575V16.7z" style="fill:none;color:#000;stroke:currentColor;stroke-width:2;stroke-linecap:butt;stroke-linejoin:miter"/><g style="stroke:none;fill:#000;font-family:Arial;font-size:12pt;text-anchor:end"><text transform="translate(80.2 426.9)">1e-29</text><text transform="translate(80.2 359.3)">1e-28</text><text transform="translate(80.2 291.7)">1e-27</text><text transform="translate(80.2 224.1)">1e-26</text><text transform="translate(80.2 156.4)">1e-25</text><text transform="translate(80.2 88.8)">1e-24</text><text transform="translate(80.2 21.2)">1e-23</text><g text-anchor="middle"><text transform="translate(262.1 444.9)">1e+8</text><text transform="translate(495.2 444.9)">1e+9</text></g><g text-anchor="middle"><text transform="rotate(-90 118.6 101)">光谱辐射亮度 / J m<tspan dy="-4" font-size="8pt"> -2</tspan> <tspan dy="4">sr</tspan><tspan dy="-5" font-size="8pt"> -1</tspan></text><text transform="translate(331.7 471.9)">频率 / Hz</text></g><g font-size="12" text-anchor="start"><text transform="translate(168.3 39.2)">维恩定律</text><text transform="translate(168.3 57.2)">普朗克黑体辐射定律</text><text transform="translate(168.3 75.2)">瑞利-金斯定律</text></g></g></svg>

<svg xmlns="http://www.w3.org/2000/svg" width="600" height="480" viewBox="0 0 600 480"><title>Comparison of radiation laws</title><rect width="600" height="480" x="0" y="0" fill="#fff"/><rect width="486.5" height="405.7" x="88.5" y="16.7" fill="#E0E0E0"/><g style="fill:none;stroke:#000;stroke-width:1;stroke-linecap:butt;stroke-linejoin:miter"><path d="M88.5,422.4 L97.5,422.4 M575.0,422.4 L566.0,422.4 h0.01"/><path d="M88.5,402.0 L93.0,402.0 M575.0,402.0 L570.5,402.0 M88.5,375.1 L93.0,375.1 M575.0,375.1 L570.5,375.1 M88.5,361.3 L93.0,361.3 M575.0,361.3 L570.5,361.3 M88.5,354.8 L97.5,354.8 M575.0,354.8 L566.0,354.8 h0.01"/><path d="M88.5,334.4 L93.0,334.4 M575.0,334.4 L570.5,334.4 M88.5,307.5 L93.0,307.5 M575.0,307.5 L570.5,307.5 M88.5,293.7 L93.0,293.7 M575.0,293.7 L570.5,293.7 M88.5,287.2 L97.5,287.2 M575.0,287.2 L566.0,287.2 h0.01"/><path d="M88.5,266.8 L93.0,266.8 M575.0,266.8 L570.5,266.8 M88.5,239.9 L93.0,239.9 M575.0,239.9 L570.5,239.9 M88.5,226.1 L93.0,226.1 M575.0,226.1 L570.5,226.1 M88.5,219.6 L97.5,219.6 M575.0,219.6 L566.0,219.6 h0.01"/><path d="M88.5,199.2 L93.0,199.2 M575.0,199.2 L570.5,199.2 M88.5,172.3 L93.0,172.3 M575.0,172.3 L570.5,172.3 M88.5,158.5 L93.0,158.5 M575.0,158.5 L570.5,158.5 M88.5,151.9 L97.5,151.9 M575.0,151.9 L566.0,151.9 h0.01"/><path d="M88.5,131.6 L93.0,131.6 M575.0,131.6 L570.5,131.6 M88.5,104.7 L93.0,104.7 M575.0,104.7 L570.5,104.7 M88.5,90.9 L93.0,90.9 M575.0,90.9 L570.5,90.9 M88.5,84.3 L97.5,84.3 M575.0,84.3 L566.0,84.3 h0.01"/><path d="M88.5,64.0 L93.0,64.0 M575.0,64.0 L570.5,64.0 M88.5,37.1 L93.0,37.1 M575.0,37.1 L570.5,37.1 M88.5,23.3 L93.0,23.3 M575.0,23.3 L570.5,23.3 M88.5,16.7 L97.5,16.7 M575.0,16.7 L566.0,16.7 h0.01"/><path d="M99.2,422.4 L99.2,417.9 M99.2,16.7 L99.2,21.2 M140.2,422.4 L140.2,417.9 M140.2,16.7 L140.2,21.2 M169.3,422.4 L169.3,417.9 M169.3,16.7 L169.3,21.2 M191.9,422.4 L191.9,417.9 M191.9,16.7 L191.9,21.2 M210.4,422.4 L210.4,417.9 M210.4,16.7 L210.4,21.2 M226.0,422.4 L226.0,417.9 M226.0,16.7 L226.0,21.2 M239.5,422.4 L239.5,417.9 M239.5,16.7 L239.5,21.2 M251.4,422.4 L251.4,417.9 M251.4,16.7 L251.4,21.2 M262.1,422.4 L262.1,413.4 M262.1,16.7 L262.1,25.7 h0.01"/><path d="M332.3,422.4 L332.3,417.9 M332.3,16.7 L332.3,21.2 M373.3,422.4 L373.3,417.9 M373.3,16.7 L373.3,21.2 M402.4,422.4 L402.4,417.9 M402.4,16.7 L402.4,21.2 M425.0,422.4 L425.0,417.9 M425.0,16.7 L425.0,21.2 M443.5,422.4 L443.5,417.9 M443.5,16.7 L443.5,21.2 M459.1,422.4 L459.1,417.9 M459.1,16.7 L459.1,21.2 M472.6,422.4 L472.6,417.9 M472.6,16.7 L472.6,21.2 M484.5,422.4 L484.5,417.9 M484.5,16.7 L484.5,21.2 M495.2,422.4 L495.2,413.4 M495.2,16.7 L495.2,25.7 h0.01"/><path d="M565.4,422.4 L565.4,417.9 M565.4,16.7 L565.4,21.2 M88.5,16.7 L88.5,422.4 L575.0,422.4 L575.0,16.7 L88.5,16.7 Z h0.01"/></g><g style="fill:none;stroke:currentColor;stroke-width:2;stroke-linecap:butt;stroke-linejoin:miter"><path id="Rayleigh" stroke="red" d="M121.3,70.7 h42.2 M88.5,293.9 L93.4,291.0 L98.3,288.2 L103.2,285.3 L108.2,282.4 L113.1,279.6 L118.0,276.7 L122.9,273.9 L127.8,271.0 L132.7,268.2 L137.6,265.3 L142.6,262.5 L147.5,259.6 L152.4,256.8 L157.3,253.9 L162.2,251.1 L167.1,248.2 L172.0,245.4 L177.0,242.5 L181.9,239.7 L186.8,236.8 L191.7,234.0 L196.6,231.1 L201.5,228.3 L206.4,225.4 L211.4,222.6 L216.3,219.7 L221.2,216.9 L226.1,214.0 L231.0,211.2 L235.9,208.3 L240.8,205.5 L245.8,202.6 L250.7,199.8 L255.6,196.9 L260.5,194.1 L265.4,191.2 L270.3,188.4 L275.2,185.5 L280.2,182.7 L285.1,179.8 L290.0,177.0 L294.9,174.1 L299.8,171.3 L304.7,168.4 L309.6,165.6 L314.6,162.7 L319.5,159.9 L324.4,157.0 L329.3,154.2 L334.2,151.3 L339.1,148.5 L344.0,145.6 L348.9,142.7 L353.9,139.9 L358.8,137.0 L363.7,134.2 L368.6,131.3 L373.5,128.5 L378.4,125.6 L383.3,122.8 L388.3,119.9 L393.2,117.1 L398.1,114.2 L403.0,111.4 L407.9,108.5 L412.8,105.7 L417.7,102.8 L422.7,100.0 L427.6,97.1 L432.5,94.3 L437.4,91.4 L442.3,88.6 L447.2,85.7 L452.1,82.9 L457.1,80.0 L462.0,77.2 L466.9,74.3 L471.8,71.5 L476.7,68.6 L481.6,65.8 L486.5,62.9 L491.5,60.1 L496.4,57.2 L501.3,54.4 L506.2,51.5 L511.1,48.7 L516.0,45.8 L520.9,43.0 L525.9,40.1 L530.8,37.3 L535.7,34.4 L540.6,31.6 L545.5,28.7 L550.4,25.9 L555.3,23.0 L560.3,20.2 L565.2,17.3 L566.2,16.7 h0.01"/><path id="Wien" stroke="#00f" d="M121.3,34.7 h 42.2 M88.5,362.4 L93.4,358.3 L98.3,354.2 L103.2,350.1 L108.2,346.0 L113.1,341.9 L118.0,337.8 L122.9,333.7 L127.8,329.7 L132.7,325.6 L137.6,321.6 L142.6,317.6 L147.5,313.6 L152.4,309.6 L157.3,305.6 L162.2,301.6 L167.1,297.7 L172.0,293.8 L177.0,289.8 L181.9,285.9 L186.8,282.1 L191.7,278.2 L196.6,274.4 L201.5,270.5 L206.4,266.7 L211.4,263.0 L216.3,259.2 L221.2,255.5 L226.1,251.8 L231.0,248.2 L235.9,244.5 L240.8,240.9 L245.8,237.4 L250.7,233.8 L255.6,230.3 L260.5,226.9 L265.4,223.5 L270.3,220.1 L275.2,216.8 L280.2,213.5 L285.1,210.3 L290.0,207.1 L294.9,204.0 L299.8,200.9 L304.7,197.9 L309.6,194.9 L314.6,192.1 L319.5,189.3 L324.4,186.5 L329.3,183.9 L334.2,181.3 L339.1,178.8 L344.0,176.4 L348.9,174.1 L353.9,171.9 L358.8,169.8 L363.7,167.8 L368.6,165.9 L373.5,164.1 L378.4,162.5 L383.3,161.0 L388.3,159.6 L393.2,158.4 L398.1,157.3 L403.0,156.4 L407.9,155.6 L412.8,155.1 L417.7,154.7 L422.7,154.5 L427.6,154.5 L432.5,154.7 L437.4,155.1 L442.3,155.8 L447.2,156.7 L452.1,157.9 L457.1,159.4 L462.0,161.1 L466.9,163.1 L471.8,165.5 L476.7,168.2 L481.6,171.2 L486.5,174.6 L491.5,178.3 L496.4,182.5 L501.3,187.1 L506.2,192.1 L511.1,197.6 L516.0,203.6 L520.9,210.1 L525.9,217.1 L530.8,224.7 L535.7,232.9 L540.6,241.7 L545.5,251.1 L550.4,261.3 L555.3,272.1 L560.3,283.7 L565.2,296.1 L570.1,309.3 L575.0,323.4 h0.01"/><path id="Planck" stroke="green" d="M121.3,52.7 h42.2 M88.5,295.5 L93.4,292.7 L98.3,289.9 L103.2,287.2 L108.2,284.4 L113.1,281.6 L118.0,278.9 L122.9,276.2 L127.8,273.4 L132.7,270.7 L137.6,268.0 L142.6,265.2 L147.5,262.5 L152.4,259.8 L157.3,257.1 L162.2,254.4 L167.1,251.8 L172.0,249.1 L177.0,246.4 L181.9,243.8 L186.8,241.1 L191.7,238.5 L196.6,235.9 L201.5,233.3 L206.4,230.7 L211.4,228.1 L216.3,225.5 L221.2,223.0 L226.1,220.4 L231.0,217.9 L235.9,215.4 L240.8,212.9 L245.8,210.4 L250.7,208.0 L255.6,205.6 L260.5,203.2 L265.4,200.8 L270.3,198.4 L275.2,196.1 L280.2,193.8 L285.1,191.6 L290.0,189.3 L294.9,187.1 L299.8,185.0 L304.7,182.8 L309.6,180.8 L314.6,178.7 L319.5,176.7 L324.4,174.8 L329.3,172.9 L334.2,171.1 L339.1,169.3 L344.0,167.6 L348.9,165.9 L353.9,164.4 L358.8,162.9 L363.7,161.4 L368.6,160.1 L373.5,158.9 L378.4,157.7 L383.3,156.7 L388.3,155.7 L393.2,154.9 L398.1,154.2 L403.0,153.6 L407.9,153.2 L412.8,152.9 L417.7,152.8 L422.7,152.9 L427.6,153.1 L432.5,153.5 L437.4,154.1 L442.3,155.0 L447.2,156.0 L452.1,157.3 L457.1,158.9 L462.0,160.7 L466.9,162.8 L471.8,165.2 L476.7,168.0 L481.6,171.0 L486.5,174.5 L491.5,178.2 L496.4,182.4 L501.3,187.0 L506.2,192.1 L511.1,197.6 L516.0,203.6 L520.9,210.1 L525.9,217.1 L530.8,224.7 L535.7,232.9 L540.6,241.7 L545.5,251.1 L550.4,261.3 L555.3,272.1 L560.3,283.7 L565.2,296.1 L570.1,309.3 L575.0,323.4 h0.01"/></g><g style="fill:none;color:#000;stroke:currentColor;stroke-width:2;stroke-linecap:butt;stroke-linejoin:miter"><path stroke="#000" d="M88.5,16.7 L88.5,422.4 L575.0,422.4 L575.0,16.7 L88.5,16.7 Z h0.01"/></g><g style="stroke:none;fill:#000;font-family:Arial;font-size:12pt;text-anchor:end"><g text-anchor="end"><text transform="translate(80.2,426.9)">1e-29</text><text transform="translate(80.2,359.3)">1e-28</text><text transform="translate(80.2,291.7)">1e-27</text><text transform="translate(80.2,224.1)">1e-26</text><text transform="translate(80.2,156.4)">1e-25</text><text transform="translate(80.2,88.8)">1e-24</text><text transform="translate(80.2,21.2)">1e-23</text></g><g text-anchor="middle"><text transform="translate(262.1,444.9)">1e+8</text><text transform="translate(495.2,444.9)">1e+9</text></g><g text-anchor="middle"><text transform="translate(17.6,219.6) rotate(270)">光谱辐射亮度 / J m<tspan dy="-4" font-size="8pt"> -2</tspan> <tspan dy="4">sr</tspan><tspan dy="-5" font-size="8pt"> -1</tspan></text><text transform="translate(331.7,471.9)">频率 / Hz</text></g><g font-size="12" text-anchor="start"><text transform="translate(168.3,39.2)">维恩定律</text><text transform="translate(168.3,57.2)">普朗克黑体辐射定律</text><text transform="translate(168.3,75.2)">瑞利-金斯定律</text></g></g></svg>
